X:0119
T:Bab at the Bouster.
T:Bab at the Bolster.
N:second title is as in the index
N:no repeat mark printed at the end
M:6/8
L:1/8
Q:3/8=120
I: :: :: ||
%% D  E ^F  G  A  B  c  d  e ^f  g
Z:Jack Campin * www.campin.me.uk * 2009
K:G
(A/B/)|c3       B3 |ABG F2D|GAG BAB|GAG BAB|
       c3       B3 |ABA fef|g2d edc|B3  G2:|
 B    |cd(e/f/) gdB|ABG F2D|G2c BAB|G2c BAB|
       cd(e/f/) gdB|ABG F2D|gfe dec|B3  G2:|
(A/B/)|cAc      BGB|ABG FED|GAG BAB|GAG BAB|
       cAc      BGB|ABA fef|g2d edc|B3  G2:|

